X:184
%%pagewidth 8in
%%vocalfont Baskerville10Pro 13
T:A begging we will go
M:C
L:1/8
K:C
%%score 1 2
V:1 clef-treble
V:2 clef-bass octave=-1
[V:1]c|[Ec]GGF E2DE|CDEF G3G|
w:I am a jol-ly hunts-man, My voice is shril and clear, Well
[V:2]z|[CG]8|[CE]8|
[V:1]Gccc c2cc &C4F4|defd[ce]2"Chorus"dc & B4x4|e2(dc)B2(AB)&G8|
w:known to drive the stag, And the droop-ing dogs to cheer. And a hunt-ing* we will*
[V:2]E,4A,4|G,4C4|c4G4|
[V:1]cBAG (AG)FE & C8|F2A2 [EG]2[DB]2 & C4x4|[Ec]6z2||
w:go, will go, will go,* And a hunt-ing we will go.
[V:2]AGFE FEDC|A2F2G2G,2|C2G,E,C,2z2||

